build/images/icons/telegram.svg

<svg width="48" height="48" viewBox="0 0 48 48" fill="none" xmlns="http://www.w3.org/2000/svg">
<path d="M24 48C37.2548 48 48 37.2548 48 24C48 10.7452 37.2548 0 24 0C10.7452 0 0 10.7452 0 24C0 37.2548 10.7452 48 24 48Z" fill="url(#paint0_linear)"/>
<path d="M8.93822 25.174C11.7438 23.6286 14.8756 22.3388 17.8018 21.0424C22.836 18.919 27.8902 16.8324 32.9954 14.8898C33.9887 14.5588 35.7734 14.2351 35.9484 15.7071C35.8526 17.7907 35.4584 19.8621 35.188 21.9335C34.5017 26.4887 33.7085 31.0283 32.935 35.5685C32.6685 37.0808 30.774 37.8637 29.5618 36.8959C26.6486 34.9281 23.713 32.9795 20.837 30.9661C19.8949 30.0088 20.7685 28.6341 21.6099 27.9505C24.0093 25.5859 26.5539 23.5769 28.8279 21.0901C29.4413 19.6088 27.6289 20.8572 27.0311 21.2397C23.7463 23.5033 20.5419 25.9051 17.0787 27.8945C15.3097 28.8683 13.2479 28.0361 11.4797 27.4927C9.89428 26.8363 7.57106 26.175 8.93806 25.1741L8.93822 25.174Z" fill="white"/>
<defs>
<linearGradient id="paint0_linear" x1="18.0028" y1="2.0016" x2="6.0028" y2="30" gradientUnits="userSpaceOnUse">
<stop stop-color="#37AEE2"/>
<stop offset="1" stop-color="#1E96C8"/>
</linearGradient>
</defs>
</svg>

<svg width="48" height="48" fill="none" xmlns="http://www.w3.org/2000/svg"><path d="M24 48c13.255 0 24-10.745 24-24S37.255 0 24 0 0 10.745 0 24s10.745 24 24 24z" fill="url(#paint0_linear)"/><path d="M8.938 25.174c2.806-1.545 5.938-2.835 8.864-4.132 5.034-2.123 10.088-4.21 15.193-6.152.994-.331 2.778-.655 2.953.817-.095 2.084-.49 4.155-.76 6.226-.686 4.556-1.48 9.095-2.253 13.636-.267 1.512-2.161 2.295-3.373 1.327-2.913-1.968-5.849-3.916-8.725-5.93-.942-.957-.069-2.332.773-3.015 2.4-2.365 4.944-4.374 7.218-6.86.613-1.482-1.2-.234-1.797.149-3.285 2.263-6.49 4.665-9.952 6.655-1.77.973-3.831.141-5.6-.402-1.585-.657-3.908-1.318-2.54-2.319z" fill="#fff"/><defs><linearGradient id="paint0_linear" x1="18.003" y1="2.002" x2="6.003" y2="30" gradientUnits="userSpaceOnUse"><stop stop-color="#37AEE2"/><stop offset="1" stop-color="#1E96C8"/></linearGradient></defs></svg>
